assets/images/cardicons/bank-of-america.svg

<svg xmlns="http://www.w3.org/2000/svg" xml:space="preserve" id="Layer_1" x="0" y="0" viewBox="0 0 40 26"><style>.st0{fill:#fff}.st1{fill:#0a68b1}.st2{fill:#e31b37}</style><path d="M0 0h40v26H0z" class="st0"/><path d="M17.465 10.205c.585.26 1.3.52 1.885.78-1.95.78-3.9 1.755-5.785 2.86-.585-.325-1.235-.585-1.885-.91 1.95-1.105 3.835-2.015 5.785-2.73m-2.34-.91c-2.08.65-4.03 1.56-5.915 2.535.585.26 1.17.455 1.755.65 1.82-1.105 3.77-1.95 5.785-2.665-.585-.13-1.04-.325-1.625-.52" class="st1"/><path d="M21.82 10.14c-1.625-.78-3.315-1.495-5.005-1.95-.585.195-1.235.39-1.755.52 1.755.52 3.51 1.17 5.135 2.015a8 8 0 0 1 1.625-.585m2.665-.845c-1.625-.715-3.38-1.365-5.135-1.82-.52.13-1.105.26-1.625.39 1.69.52 3.445 1.17 5.07 1.885.52-.13 1.04-.325 1.69-.455m4.225 1.43c-4.095 1.43-8.06 3.38-11.57 5.915.845.52 1.69 1.105 2.6 1.69a48 48 0 0 1 10.985-6.5c-.65-.39-1.365-.715-2.015-1.105M25.85 9.36c-4.29 1.17-8.32 2.925-12.09 5.395.78.455 1.625.845 2.47 1.3 3.64-2.535 7.605-4.42 11.83-5.72-.78-.26-1.495-.65-2.21-.975" class="st2"/></svg>

<svg xmlns="http://www.w3.org/2000/svg" xmlns:xlink="http://www.w3.org/1999/xlink" id="Layer_1" x="0" y="0" version="1.1" viewBox="0 0 40 26" style="enable-background:new 0 0 40 26" xml:space="preserve"><style type="text/css">.st0{fill:#fff}.st1{fill:#0a68b1}.st2{fill:#e31b37}</style><rect width="40" height="26" class="st0"/><g><path d="M17.465,10.205c0.585,0.26,1.3,0.52,1.885,0.78c-1.95,0.78-3.9,1.755-5.785,2.86 c-0.585-0.325-1.235-0.585-1.885-0.91C13.63,11.83,15.515,10.92,17.465,10.205" class="st1"/><path d="M15.125,9.295c-2.08,0.65-4.03,1.56-5.915,2.535c0.585,0.26,1.17,0.455,1.755,0.65 c1.82-1.105,3.77-1.95,5.785-2.665C16.165,9.685,15.71,9.49,15.125,9.295" class="st1"/><path d="M21.82,10.14c-1.625-0.78-3.315-1.495-5.005-1.95C16.23,8.385,15.58,8.58,15.06,8.71 c1.755,0.52,3.51,1.17,5.135,2.015C20.715,10.465,21.3,10.27,21.82,10.14 M24.485,9.295c-1.625-0.715-3.38-1.365-5.135-1.82 c-0.52,0.13-1.105,0.26-1.625,0.39c1.69,0.52,3.445,1.17,5.07,1.885C23.315,9.62,23.835,9.425,24.485,9.295 M28.71,10.725 c-4.095,1.43-8.06,3.38-11.57,5.915c0.845,0.52,1.69,1.105,2.6,1.69c3.38-2.665,7.02-4.81,10.985-6.5 C30.075,11.44,29.36,11.115,28.71,10.725 M25.85,9.36c-4.29,1.17-8.32,2.925-12.09,5.395c0.78,0.455,1.625,0.845,2.47,1.3 c3.64-2.535,7.605-4.42,11.83-5.72C27.28,10.075,26.565,9.685,25.85,9.36" class="st2"/></g></svg>
